X: 85
T: No_23_The_Eagle_Will_Destroy_Us_All.krn
N: Derived from No_23_The_Eagle_Will_Destroy_Us_All.krn
%%abc-version 2.0
%%abcx-abcm2ps-target-version 5.9.1 (29 Sep 2008)
%%abc-creator hum2abc beta
%%abcx-conversion-date 2019/03/15 08:37:56
%%humdrum-veritas 4150116280
%%humdrum-veritas-data 506500477
%%linebreak <none>
%%barnumbers 0
L: 1/4
M: 2/4
K: F clef=bass
F, [I:setbarnb 1]| 
CC ||  
[M:3/4]C2C | 
C(B,/G,/) G,/ z/ ]|:  
CC(B,/G,/) | 
G,G,(A,/G,/) ||  
[M:2/4]F,(D,/C,/) | 
!fermata!C,F, ||  
[M:3/4]F,D,G, ||  
[M:2/4](F,D,) ||  
[M:3/4](F,D,)F,/ z/ :|]  



